assets/images/member/phone.svg

<svg height="16" viewBox="0 0 16 16" width="16" xmlns="http://www.w3.org/2000/svg"><g fill="none" fill-rule="evenodd"><path d="m0 0h16v16h-16z"/><g fill-rule="nonzero" transform="translate(3 1)"><path d="m.71428571 0h8.57142858c.3945 0 .71428571.313404.71428571.7v12.6c0 .38661-.31978571.7-.71428571.7h-8.57142858c-.39448571 0-.71428571-.31339-.71428571-.7v-12.6c0-.386596.3198-.7.71428571-.7z" fill="#a56b3b"/><g fill="#ddb28e"><path d="m1.93877551 2h6.12244898c.28178571 0 .51020408.156702.51020408.35v6.3c0 .193305-.22841837.35-.51020408.35h-6.12244898c-.28177551 0-.51020408-.156695-.51020408-.35v-6.3c0-.193298.22842857-.35.51020408-.35z"/><path d="m5 10.5c-.3945 0-.71428571.31339-.71428571.7s.31978571.7.71428571.7.71428571-.31339.71428571-.7-.31978571-.7-.71428571-.7z"/></g></g></g></svg>

<?xml version="1.0" encoding="UTF-8"?>
<svg width="16px" height="16px" viewBox="0 0 16 16" version="1.1" xmlns="http://www.w3.org/2000/svg" xmlns:xlink="http://www.w3.org/1999/xlink">
    <title>切图</title>
    <g id="会员" stroke="none" stroke-width="1" fill="none" fill-rule="evenodd">
        <g id="切图" transform="translate(-673.000000, -85.000000)">
            <g id="电话" transform="translate(673.000000, 85.000000)">
                <rect id="矩形" x="0" y="0" width="16" height="16"></rect>
                <g id="编组" transform="translate(3.000000, 1.000000)" fill-rule="nonzero">
                    <path d="M0.714285714,0 L9.28571429,0 C9.68021429,0 10,0.313404 10,0.7 L10,13.3 C10,13.68661 9.68021429,14 9.28571429,14 L0.714285714,14 C0.3198,14 0,13.68661 0,13.3 L0,0.7 C0,0.313404 0.3198,0 0.714285714,0 Z" id="形状" fill="#A56B3B"></path>
                    <path d="M1.93877551,2 L8.06122449,2 C8.3430102,2 8.57142857,2.156702 8.57142857,2.35 L8.57142857,8.65 C8.57142857,8.843305 8.3430102,9 8.06122449,9 L1.93877551,9 C1.657,9 1.42857143,8.843305 1.42857143,8.65 L1.42857143,2.35 C1.42857143,2.156702 1.657,2 1.93877551,2 Z" id="路径" fill="#DDB28E"></path>
                    <path d="M5,10.5 C4.6055,10.5 4.28571429,10.81339 4.28571429,11.2 C4.28571429,11.58661 4.6055,11.9 5,11.9 C5.3945,11.9 5.71428571,11.58661 5.71428571,11.2 C5.71428571,10.81339 5.3945,10.5 5,10.5 Z" id="路径" fill="#DDB28E"></path>
                </g>
            </g>
        </g>
    </g>
</svg>
